X: 5
T: The Maid In The Meadow
R: jig
M: 6/8
L: 1/8
K: Gmaj
|: GAB |c3 B/c/dB | AGA BGE | DGB AGA | BGB AGE |
c2 c B/c/dB | AGA BGE | DGB AGA |[1 BGG :|[2 BGE ||
|: G2 D |GBd g2 g | ede gdB | GBd gdB | ABA AGE |
GBd g2 g | ege gdB | GAB AGA | BGF :|


Tune 942	Setting 14132

